X: 51
T: Beatrice Hill's Reel
O: trad England
B: Hardcore English p.28
N: Originally in D
N: Recorded in 1952, as played by Bromsberrow Heath melodeon player Beatrice Hill,  and  in
N: 1954 by the Forest of Dean melodion player Russell Wortley, and also turns up in Norfolk
N: (Walter Geary), Shropshire (Dennis Crowther) and Australia (Charlie Bachelor).
R: reel
Z: 2007 John Chambers <jc:trillian.mit.edu>
M: C|
L: 1/8
K: D
   A2 |:\
"D"B2AF DFAd | "G"c2B2{A} B2ed | "A7"cdef gece |\
[1,3 edcB  AGFA :|2,4 e2dc "D"d2 :|
|: [a2A2] |\
"D"[b2B2][aA][fF] [dD][fF][a2A2] |"Em"[a2A2][gG][fF] [g2G2][eE][fF] |\
"A7"[gG][fF][eE][dD] [cC][dD][eE][fF] |\
[1,3 [g2G2][fF][eE] "D"[f2F2] :|2,4 [e2E2][dD][cC] "D"[d2D2] :|
%%text The second part works equally well in either octave.

%%sep 1 1 500

